X:176
T: HAENSCHEN WILLST DU TANZEN
N: K2358
O: Europa, Mitteleuropa, Deutschland, Oberdiebach am Rhein
R: Kinder - Lied, Reigen, Tanz - Spiel
M: 4/4
L: 1/4
K: F
 | ccAd | c2A
F | cccc | f2z2
ccAd | c2A
F | cccc | f2z
c | cFFd | ccA
A | cccd | ccA
F | cccc | F2z2

